svg/fluentui-system-icons/ic_fluent_device_meeting_room_remote_16_filled.svg

<svg width="16" height="16" viewBox="0 0 16 16" fill="none" xmlns="http://www.w3.org/2000/svg">
<path d="M4.66838 2C3.77204 2 2.98508 2.59595 2.7424 3.45851L2.30661 5.00745C2.3708 5.00251 2.43567 5 2.50112 5H4.50182C5.88302 5 7.0027 6.11929 7.0027 7.5V12H12.918C14.2969 12 15.2944 10.6837 14.9211 9.35685L13.2616 3.45851C13.0189 2.59595 12.2319 2 11.3356 2H4.66838ZM6.95267 14C6.98548 13.8384 7.0027 13.6712 7.0027 13.5V13H11.5037C11.78 13 12.0039 13.2239 12.0039 13.5C12.0039 13.7761 11.78 14 11.5037 14H6.95267ZM3.50088 9.5C3.91524 9.5 4.25114 9.16421 4.25114 8.75C4.25114 8.33579 3.91524 8 3.50088 8C3.08652 8 2.75062 8.33579 2.75062 8.75C2.75062 9.16421 3.08652 9.5 3.50088 9.5ZM1 7.5C1 6.67157 1.67181 6 2.50053 6H4.50123C5.32995 6 6.00176 6.67157 6.00176 7.5V13.5C6.00176 14.3284 5.32995 15 4.50123 15H2.50053C1.67181 15 1 14.3284 1 13.5V7.5ZM2.50053 7C2.22429 7 2.00035 7.22386 2.00035 7.5V13.5C2.00035 13.7761 2.22429 14 2.50053 14H4.50123C4.77747 14 5.00141 13.7761 5.00141 13.5V7.5C5.00141 7.22386 4.77747 7 4.50123 7H2.50053Z" fill="#212121"/>
</svg>

<svg xmlns="http://www.w3.org/2000/svg" width="16" height="16"><path d="M4.668 2a2 2 0 0 0-1.926 1.459l-.435 1.548C2.37 5.003 2.436 5 2.5 5h2a2.5 2.5 0 0 1 2.502 2.5V12h5.915a2.08 2.08 0 0 0 2.003-2.643l-1.66-5.898A2 2 0 0 0 11.337 2H4.668Zm2.285 12a2.51 2.51 0 0 0 .05-.5V13h4.5a.5.5 0 1 1 0 1h-4.55ZM3.5 9.5a.75.75 0 1 0 0-1.5.75.75 0 0 0 0 1.5ZM1 7.5A1.5 1.5 0 0 1 2.5 6h2.001a1.5 1.5 0 0 1 1.5 1.5v6a1.5 1.5 0 0 1-1.5 1.5h-2A1.5 1.5 0 0 1 1 13.5v-6ZM2.5 7a.5.5 0 0 0-.5.5v6a.5.5 0 0 0 .5.5h2.001a.5.5 0 0 0 .5-.5v-6a.5.5 0 0 0-.5-.5h-2Z"/></svg>
